src/Styles/images/logo.svg

<?xml version="1.0" encoding="UTF-8"?>
<svg width="36px" height="27px" viewBox="0 0 36 27" version="1.1" xmlns="http://www.w3.org/2000/svg" xmlns:xlink="http://www.w3.org/1999/xlink">
    <!-- Generator: sketchtool 51.3 (57544) - http://www.bohemiancoding.com/sketch -->
    <title>742300CF-A571-48C3-91FD-1F75ADC2393A</title>
    <desc>Created with sketchtool.</desc>
    <defs></defs>
    <g id="Basics" stroke="none" stroke-width="1" fill="none" fill-rule="evenodd">
        <g id="Basics_Icons" transform="translate(-211.000000, -376.000000)" fill="#4382F9" fill-rule="nonzero">
            <g id="Group-3" transform="translate(205.000000, 366.000000)">
                <path d="M15.1617859,32.218045 C15.2196363,32.0718695 15.3140672,31.8081261 15.3619722,31.6587466 L17.0079039,26.5389584 C17.2962352,25.6398609 18.1701771,25.0063885 19.1129086,25.0125813 C19.1595343,25.0128408 19.1595343,25.0128408 19.3784443,25.0140123 C19.5936521,25.0151517 19.8406339,25.0164214 20.1156218,25.0177889 C20.9013643,25.0216962 21.7539331,25.0256036 22.6431781,25.0292505 C23.9265449,25.0345137 25.176852,25.0387804 26.3529184,25.0416952 C30.3159156,25.0515171 33.1678032,25.0427905 33.3827171,25.0201144 C36.2714947,24.7152317 38.5687779,22.4257403 38.5687779,19.2247627 C38.5687779,18.0512376 38.1437251,16.5987881 37.3676595,15.5137687 C36.4132391,14.179391 35.0062207,13.4312221 32.9876128,13.4312221 L15.2917811,13.4312221 C14.3442753,13.4312221 13.57617,12.6631169 13.57617,11.715611 C13.57617,10.7681052 14.3442753,10 15.2917811,10 L32.9876128,10 C36.1316134,10 38.5697999,11.2964829 40.1584797,13.5176205 C41.3703407,15.2119266 42,17.3635377 42,19.2247627 C42,24.2667066 38.3030701,27.9510974 33.7428024,28.4323898 C33.324422,28.4765342 30.8558416,28.4840879 26.3444144,28.4729068 C25.1663332,28.469987 23.9142138,28.4657141 22.6291065,28.4604437 C21.7388067,28.4567925 20.8852522,28.4528806 20.0985594,28.4489685 C20.0759733,28.4488562 19.586093,29.8684401 18.6289184,32.7077202 C18.5580749,32.9286302 18.4379907,33.2640224 18.3524287,33.480219 L17.6148945,35.345446 C17.284642,36.1813977 16.4345191,36.7596361 15.5357734,36.7596361 L7.97680137,36.7596361 C6.61479017,36.7596361 5.67858459,35.4675877 6.1032695,34.1734164 L11.0713507,19.025176 C11.3631372,18.1359953 12.2293967,17.5081935 13.1654709,17.5081935 L33.5860967,17.5081935 C34.5336025,17.5081935 35.3017077,18.2762988 35.3017077,19.2238046 C35.3017077,20.1713104 34.5336025,20.9394156 33.5860967,20.9394156 L14.0545908,20.9394156 L9.99144228,33.328414 L14.722732,33.328414 L15.1617859,32.218045 Z" id="Page-1"></path>
            </g>
        </g>
    </g>
</svg>

<svg xmlns="http://www.w3.org/2000/svg" width="48" height="48" viewBox="0 0 48 48">
    <g fill="none" fill-rule="evenodd">
        <path fill="#FFF" d="M-40-12h1366v72H-40z"/>
        <path fill="#4382F9" fill-rule="nonzero" d="M15.162 32.218c.058-.146.152-.41.2-.56l1.646-5.119a2.227 2.227 0 0 1 2.105-1.526l.265.001a2309.216 2309.216 0 0 0 6.975.028c3.963.01 6.815 0 7.03-.022 2.888-.305 5.186-2.594 5.186-5.795 0-1.174-.425-2.626-1.201-3.711-.955-1.335-2.362-2.083-4.38-2.083H15.292a1.716 1.716 0 1 1 0-3.431h17.696c3.144 0 5.582 1.296 7.17 3.518C41.37 15.212 42 17.364 42 19.225c0 5.042-3.697 8.726-8.257 9.207-.419.045-2.887.052-7.399.04a2309.275 2309.275 0 0 1-6.245-.023c-.023 0-.513 1.42-1.47 4.259-.07.22-.191.556-.277.772l-.737 1.865a2.274 2.274 0 0 1-2.08 1.415H7.978a1.955 1.955 0 0 1-1.874-2.587l4.968-15.148a2.236 2.236 0 0 1 2.094-1.517h20.421a1.716 1.716 0 0 1 0 3.431H14.055L9.99 33.33h4.732l.439-1.111z"/>
    </g>
</svg>
